X:1
T:Priest's Leap [1], The
M:6/8
L:1/8
R:Jig
B:Roche - Collection of Traditional Irish Music vol. 3 (1927, No. 88)
Z:AK/Fiddler's Companion
K:G
D|:O(G2G) BGB|def gfg|ecA dBG|FAG FED|
(G2 G) BGB|def gfg|ecA dBG|1 FEF (G2D):|2 FEF GBd||
|:efe edB|def (g2a)|bag agf|(4gfeg fdB|
efe edB|def (g2a)|bag agf|1 gfg (e2B):|2 gfa gdB||

